source/img/about-us/php.svg

<svg width="59" height="42" viewBox="0 0 59 42" fill="none" xmlns="http://www.w3.org/2000/svg">
<path d="M57.0927 0.156982H1.36523C0.759016 0.156982 0.267578 0.648652 0.267578 1.25516V40.3722C0.267578 40.9787 0.759017 41.4704 1.36524 41.4704H57.0927C57.699 41.4704 58.1904 40.9787 58.1904 40.3722V1.25516C58.1904 0.648653 57.699 0.156982 57.0927 0.156982Z" fill="url(#paint0_linear)"/>
<path d="M58.6499 6.28003C58.6499 6.42679 45.5696 6.53442 29.449 6.53442C13.3283 6.53442 0.238281 6.42679 0.238281 6.28003C0.238281 6.13326 13.3186 6.02563 29.449 6.02563C45.5794 6.02563 58.6499 6.15283 58.6499 6.28003Z" fill="white"/>
<path d="M9.89731 3.95354C10.3292 3.95354 10.6794 3.6469 10.6794 3.26864C10.6794 2.89038 10.3292 2.58374 9.89731 2.58374C9.46538 2.58374 9.11523 2.89038 9.11523 3.26864C9.11523 3.6469 9.46538 3.95354 9.89731 3.95354Z" fill="white"/>
<path d="M3.62583 3.95354C4.05776 3.95354 4.40791 3.6469 4.40791 3.26864C4.40791 2.89038 4.05776 2.58374 3.62583 2.58374C3.1939 2.58374 2.84375 2.89038 2.84375 3.26864C2.84375 3.6469 3.1939 3.95354 3.62583 3.95354Z" fill="white"/>
<path d="M6.95005 3.95354C7.38198 3.95354 7.73213 3.6469 7.73213 3.26864C7.73213 2.89038 7.38198 2.58374 6.95005 2.58374C6.51812 2.58374 6.16797 2.89038 6.16797 3.26864C6.16797 3.6469 6.51812 3.95354 6.95005 3.95354Z" fill="white"/>
<path d="M21.6855 22.7798C21.6855 25.2543 19.8965 26.7605 16.9344 26.7605H14.9037C14.2975 26.7605 13.806 27.2522 13.806 27.8587V29.8023C13.806 30.1534 13.5215 30.4381 13.1706 30.4381C12.8197 30.4381 12.5352 30.1534 12.5352 29.8023V19.868C12.5352 19.2614 13.0266 18.7698 13.6328 18.7698H16.9344C19.8965 18.7698 21.6855 20.2662 21.6855 22.7798ZM20.4635 22.7798C20.4635 20.9117 19.2317 19.8456 16.8953 19.8456H14.9037C14.2975 19.8456 13.806 20.3373 13.806 20.9438V24.6158C13.806 25.2224 14.2975 25.714 14.9037 25.714H16.8953C19.2317 25.6553 20.4635 24.5892 20.4635 22.7798Z" fill="white"/>
<path d="M33.4521 18.7693C33.7787 18.7693 34.0435 19.0342 34.0435 19.361V29.8263C34.0435 30.1531 33.7787 30.418 33.4521 30.418C33.1254 30.418 32.8606 30.1531 32.8606 29.8263V26.1368C32.8606 25.5303 32.3692 25.0387 31.7629 25.0387H26.6751C26.0689 25.0387 25.5775 25.5303 25.5775 26.1368V29.8018C25.5775 30.1421 25.3017 30.418 24.9616 30.418C24.6214 30.418 24.3457 30.1421 24.3457 29.8018V19.3855C24.3457 19.0452 24.6214 18.7693 24.9616 18.7693C25.3017 18.7693 25.5775 19.0452 25.5775 19.3855V22.8548C25.5775 23.4613 26.0689 23.953 26.6751 23.953H31.7629C32.3692 23.953 32.8606 23.4613 32.8606 22.8548V19.361C32.8606 19.0342 33.1254 18.7693 33.4521 18.7693Z" fill="white"/>
<path d="M46.9765 22.7793C46.9765 25.2538 45.1875 26.7601 42.2253 26.7601H40.1947C39.5884 26.7601 39.097 27.2517 39.097 27.8582V29.8214C39.097 30.1617 38.8213 30.4376 38.4811 30.4376C38.141 30.4376 37.8652 30.1617 37.8652 29.8214V19.8675C37.8652 19.261 38.3567 18.7693 38.9629 18.7693H42.2253C45.1875 18.7693 46.9765 20.2657 46.9765 22.7793ZM45.774 22.7793C45.774 20.9112 44.5422 19.8452 42.2156 19.8452H40.1947C39.5884 19.8452 39.097 20.3368 39.097 20.9433V24.6154C39.097 25.2219 39.5884 25.7135 40.1947 25.7135H42.1862C44.5129 25.6548 45.774 24.5888 45.774 22.7793Z" fill="white"/>
<defs>
<linearGradient id="paint0_linear" x1="56.4049" y1="20.8137" x2="2.00572" y2="19.1761" gradientUnits="userSpaceOnUse">
<stop stop-color="#A62E41"/>
<stop offset="1" stop-color="#E13152"/>
</linearGradient>
</defs>
</svg>

<svg width="59" height="42" fill="none" xmlns="http://www.w3.org/2000/svg"><path d="M57.093.157H1.365C.76.157.268.649.268 1.255v39.117c0 .607.491 1.098 1.097 1.098h55.728c.606 0 1.097-.491 1.097-1.098V1.255c0-.605-.49-1.098-1.097-1.098z" fill="url(#paint0_linear)"/><path d="M58.65 6.28c0 .147-13.08.254-29.201.254-16.12 0-29.21-.107-29.21-.254 0-.147 13.08-.254 29.21-.254 16.13 0 29.2.127 29.2.254zM9.897 3.954c.432 0 .782-.307.782-.685 0-.379-.35-.685-.782-.685-.432 0-.782.306-.782.685 0 .378.35.685.782.685zm-6.271 0c.432 0 .782-.307.782-.685 0-.379-.35-.685-.782-.685-.432 0-.782.306-.782.685 0 .378.35.685.782.685zm3.324 0c.432 0 .782-.307.782-.685 0-.379-.35-.685-.782-.685-.432 0-.782.306-.782.685 0 .378.35.685.782.685zM21.686 22.78c0 2.474-1.79 3.98-4.752 3.98h-2.03c-.607 0-1.098.492-1.098 1.099v1.943a.636.636 0 11-1.27 0v-9.934c0-.607.49-1.098 1.097-1.098h3.301c2.962 0 4.752 1.496 4.752 4.01zm-1.223 0c0-1.868-1.231-2.934-3.568-2.934h-1.991c-.607 0-1.098.491-1.098 1.098v3.672c0 .606.492 1.098 1.098 1.098h1.991c2.337-.059 3.569-1.125 3.569-2.934zm12.989-4.01c.327 0 .592.264.592.591v10.465a.592.592 0 11-1.183 0v-3.69c0-.606-.492-1.097-1.098-1.097h-5.088c-.606 0-1.098.491-1.098 1.098v3.665a.616.616 0 11-1.231 0V19.386a.616.616 0 111.232 0v3.469c0 .606.49 1.098 1.097 1.098h5.088c.606 0 1.098-.492 1.098-1.098V19.36c0-.327.264-.592.591-.592zm13.525 4.01c0 2.474-1.79 3.98-4.752 3.98h-2.03c-.607 0-1.098.492-1.098 1.098v1.963a.616.616 0 11-1.232 0v-9.954c0-.606.492-1.098 1.098-1.098h3.262c2.962 0 4.752 1.497 4.752 4.01zm-1.203 0c0-1.869-1.232-2.935-3.558-2.935h-2.021c-.607 0-1.098.492-1.098 1.098v3.672c0 .607.491 1.099 1.098 1.099h1.991c2.327-.06 3.588-1.125 3.588-2.935z" fill="#fff"/><defs><linearGradient id="paint0_linear" x1="56.405" y1="20.814" x2="2.006" y2="19.176" gradientUnits="userSpaceOnUse"><stop stop-color="#A62E41"/><stop offset="1" stop-color="#E13152"/></linearGradient></defs></svg>
